Front/img/common-section_sousmetier/illu-15.svg

<svg width="471" height="541" viewBox="0 0 471 541" fill="none" xmlns="http://www.w3.org/2000/svg">
<path d="M0 539.498C33.0814 389.389 237.833 366.666 340.5 373.499V539.499L0 539.498Z" fill="white"/>
<path d="M194 97.2617V538.001" stroke="#C4C4C4"/>
<circle r="22" transform="matrix(-1 0 0 1 138.828 361)" fill="#E1E1E1"/>
<path d="M191.328 196.998C142.828 183.463 88.8284 184.499 61.8284 184.499V307.999C118.828 307.999 256.428 308.498 266.828 308.498C279.828 308.498 314.328 295.498 283.328 255.998C252.328 216.498 212.828 202.999 191.328 196.998Z" fill="#152D5D"/>
<path d="M110.328 249.998L56.8281 249.998V246.998C70.8281 246.665 101.728 246.298 113.328 247.498C124.928 248.698 132.495 252.998 134.828 254.998C130.328 253.331 119.128 249.998 110.328 249.998Z" fill="#E1E1E1"/>
<path d="M140.835 349.143L134.27 297L125.471 301.752L133.673 363.239L140.835 349.143Z" fill="#E1E1E1"/>
<path d="M104.009 292.619C125.498 286.722 136.175 272.416 138.828 266C133.655 293.192 102.849 305.997 88.0924 309H42.8281V306.133V304.086C54.2685 302.721 82.5214 298.516 104.009 292.619Z" fill="#E1E1E1"/>
<rect width="33" height="53" rx="16.5" transform="matrix(-1 0 0 1 190.828 211)" fill="#E1E1E1"/>
<circle r="9.5" transform="matrix(-1 0 0 1 134.328 220.5)" fill="#E1E1E1"/>
<circle r="9.5" transform="matrix(-1 0 0 1 103.328 220.5)" fill="#E1E1E1"/>
<circle r="9.5" transform="matrix(-1 0 0 1 73.3281 220.5)" fill="#E1E1E1"/>
<path d="M220.828 218.997H235.828C250.228 226.197 265.828 240.664 271.828 246.997H213.828C208.328 246.997 209.328 242.497 209.828 240.997C210.328 239.497 216.328 224.497 217.828 221.497C219.028 219.097 220.328 218.83 220.828 218.997Z" fill="#E1E1E1"/>
<rect x="52" y="96" width="283" height="13" fill="white"/>
<path d="M256 109.086H243.5H194V232.497V292.997L256 109.086Z" fill="#C4C4C4" fill-opacity="0.3"/>
<path d="M341 539.999V54.5691C375.866 53.2185 406.747 57.2712 436.134 82.0381C463.529 105.126 470.004 136.525 470.004 152.286L471 539.999H341Z" fill="#E1E1E1"/>
<path d="M75.4951 -0.856693C36.6741 -3.53377 9.32295 25.2448 0.5 39.9688H207.5C200.261 28.9258 179.334 9.31615 153.544 19.2213C121.307 31.6028 124.021 2.48965 75.4951 -0.856693Z" fill="#E1E1E1"/>
<rect x="329" y="96" width="12" height="444" fill="white"/>
<rect x="49" y="96" width="12.8282" height="443.178" fill="white"/>
<path fill-rule="evenodd" clip-rule="evenodd" d="M115.997 109.016L62 263.754V327.675L141.537 109.016H195.002L194 539.999H61L62.0018 109.016H115.997Z" fill="#DCDCDC" fill-opacity="0.5"/>
<path fill-rule="evenodd" clip-rule="evenodd" d="M194 335.261L269 109.09H329V540.001H194V497.549L323 109.546H317.5L194 481.116V335.261Z" fill="#D8D8D8" fill-opacity="0.5"/>
<path d="M125.001 395.001C125.001 395.001 120.312 393.283 111.616 382.469C111.616 382.469 113.785 391.561 102.187 401.974C94.1543 409.163 100.42 447.462 103.804 454.22C103.804 454.22 71.7523 485.8 19.5781 460.508C19.5781 460.508 32.6819 412.818 33.6358 385.854C34.8107 355.235 38.3552 335.55 49.0792 306.643C59.8033 277.737 62.3437 261.787 60.8877 246.567C59.4317 231.348 60.1647 207.518 86.9949 201.761C113.825 196.003 116.998 227.553 116.998 227.553C116.998 227.553 119.368 267.894 108.814 277.136C99.5665 285.286 83.7114 274.943 83.7114 274.943C83.7114 274.943 80.0363 293.657 84.2938 300.265C84.2938 300.265 90.1679 306.984 104.677 312.761C119.83 318.769 122.26 362.825 130.293 370.895" fill="#E2BBA6"/>
<path d="M100.229 202.23C101.303 208.789 103.02 219.322 104.606 229.705C103.602 219.923 101.745 209.089 100.459 202.311L100.229 202.23Z" fill="#CEA999"/>
<path d="M116.977 227.594L104.606 229.706L105.229 239.118C105.349 244.285 110.099 242.763 108.824 244.725C103.482 252.966 96.1918 239.379 91.7736 239.799C87.3555 240.22 85.2971 245.246 88.4701 253.817C91.6431 262.388 80.2363 264.771 79.2523 269.577C78.2682 274.383 70.6068 301.447 79.2523 310.709L92.4966 306.704C89.4979 304.936 86.7435 302.785 84.303 300.306C80.0455 293.697 83.7206 274.984 83.7206 274.984C83.7206 274.984 99.5656 285.327 108.824 277.177C109.59 276.491 110.265 275.71 110.832 274.854C116.104 267.474 116.857 248.741 117.007 244.725C117.158 240.71 116.977 227.594 116.977 227.594Z" fill="#CEA999"/>
<path d="M103.5 252.856C113.5 243.256 118 232.189 119 227.856C125.8 209.056 111.5 203.356 103.5 202.856C98.7 200.056 93.5 198.356 91.5 197.856C62.5 192.356 48.5 206.499 42 217.499C38.1846 223.956 35 235.499 36 240.499C37 245.499 36 251.499 32 259.999C28 268.499 34.5 270.499 34.5 276.999C34.5 282.199 30.3333 285.833 29 287.499C31.6667 289.166 49.9 294.556 53.5 293.356C58 291.856 56.5 290.856 65.5 293.356C74.5 295.856 82 293.856 86.5 290.856C90.1 288.456 97.8333 290.189 100 290.856C99 288.022 95.1 279.456 97.5 271.856C99.9 264.256 95.5 259.022 93 257.356C90.3333 254.356 86.3 247.456 91.5 243.856C96.7 240.256 101.667 248.356 103.5 252.856Z" fill="#E9D694"/>
<path d="M103.5 253C121.1 234.6 121.5 218.667 119.5 213C117.5 239.5 95.5 235 89 242.5C82.5 250 84 261 89 270C93 277.2 91.3333 282.333 90 284C84.5 283.5 82.5 287.5 74 289C65.5 290.5 66.5 287.5 56 290C47.6 292 34.8333 289.167 29.5 287.5C31.5 289.5 45.5 293.5 50.5 293.5C55.5 293.5 54.5 292.5 60.5 292.5C66.5 292.5 67.5 295 74 294.5C80.5 294 80.5 293.5 87.5 290C93.1 287.2 98.5 289.833 100.5 291.5C99 288 96.4 278.8 98 270C100 259 94.5 258.5 92 256C90.2322 254.232 86.5 247 93 243.5C97 241.346 102.167 248.667 103.5 253Z" fill="#C9B058"/>
<path d="M36.0005 261C32.4005 263.4 31.5005 267 31.5005 268.5C28.5005 263 31.5005 261 34.5005 253.5C37.5005 246 36.0005 247 36.0005 239.5C36.0005 232 37.0005 227 41.0005 219C45.0005 211 53.5005 200 73.0005 197C88.6005 194.6 99.8338 200 103.5 203C106.7 202.6 109.834 203.834 111 204.5C109.334 205.334 104.7 206.5 99.5005 204.5C94.3005 202.5 91.3338 203.667 90.5005 204.5C72.5005 214.5 65.5005 211.5 55.0005 215.5C44.5005 219.5 38.5005 230 41.0005 241.5C43.5005 253 40.5005 258 36.0005 261Z" fill="#FAE7A4"/>
<path d="M50.7058 302.164C50.7058 302.164 45.9061 306.169 41.5784 318.184C37.2506 330.2 48.5068 311.266 48.5068 311.266L49.8323 304.567L50.7058 302.164Z" fill="#292289"/>
<path d="M102.498 450.633C102.498 450.633 117.864 505.594 117 539.998L14.9458 539.693H0C0 539.693 1 512.499 5.5 494.499C10 476.499 21.4753 453.286 21.4753 453.286C21.4753 453.286 66.0081 476.105 102.498 450.633Z" fill="#F4EFEF"/>
<path d="M102.186 311.5C117.379 317.548 128 348.033 146 385L120 400C120 400 116.5 393.5 111.615 382.467C111.615 382.467 113.784 391.559 102.186 401.972C94.1834 409.161 100.851 446.368 103.803 454.218C103.803 454.218 28.805 486.739 21.4648 453.287C21.4648 453.287 29.056 424.3 30.0601 397.336C31.1647 366.727 34.4835 335.5 40.9997 318.5C45.1869 307.576 51.9997 299.5 51.9997 299.5C56.7291 304.426 60.702 308.34 84.4997 300.5C89.3297 303.943 96.6482 309.365 102.186 311.5Z" fill="#F4C7C3"/>
<path d="M107.318 369.023C107.318 369.023 116.476 386.736 125.824 389.509C128.997 391.115 133.597 391.006 135.501 391.002L119.501 400.502C119.501 400.502 117.001 394.002 111.616 382.47C111.616 382.47 113.785 391.562 102.187 401.975C94.1844 409.164 100.852 446.371 103.804 454.221C103.804 454.221 97.2972 457.035 87.9488 460.159C85.559 445.741 81.6329 416.383 87.0853 405.269C94.4355 390.29 106.515 387.397 107.318 369.023Z" fill="#D3A8A4"/>
<g style="mix-blend-mode:multiply" opacity="0.3">
<path d="M53.6777 464.07C53.8585 465.282 54.0292 466.463 54.1999 467.635C54.0292 466.463 53.8585 465.282 53.6777 464.07Z" fill="black"/>
</g>
<g style="mix-blend-mode:multiply" opacity="0.3">
<path d="M53.5365 463.15C53.5365 462.829 53.4465 462.509 53.3965 462.148C53.4365 462.509 53.4965 462.829 53.5365 463.15Z" fill="black"/>
</g>
<path d="M54.1364 521L50 540H60C58 531 54.7727 523.167 54.1364 521Z" fill="white"/>
<path d="M54 521L50 540H42L46 525.5L35.5 519.5C40.3 520.3 49.8333 520.833 54 521Z" fill="#C4C4C4"/>
<path d="M142.5 356.5L126 343L136.5 365L142.5 356.5Z" fill="#D3A8A4"/>
<path d="M154 369.5C151.6 368.3 144.167 362.333 140.5 359.5L136.5 365L146 385L142.5 387C148.5 392.2 152.667 392.167 154 391.5C168.4 385.9 190.333 371.5 199.5 365L195 354C182.333 359.667 156.4 370.7 154 369.5Z" fill="#E2BBA6"/>
<path d="M231.534 313L210.726 334.333L202 343L220.795 361L251 329L231.534 313Z" fill="#8E5841"/>
<circle cx="226" cy="335.5" r="5.5" fill="#FFD300"/>
<path d="M233.5 320L243 328" stroke="#FFD300"/>
<path d="M232.5 324L238.5 329" stroke="#FFD300"/>
<path d="M211 346.5L217.5 352.5" stroke="#FFD300"/>
<path d="M201 350.499C198.6 352.099 197 352.999 195 353.999L198 365.999C199.333 364.832 204 362.299 208 361.499C212 360.699 215.5 357.999 217 356.999C214.667 354.999 210 350.699 210 349.499C210 347.999 211.5 343.499 213 341.999C214.5 340.499 218 337.999 217 336.499C216 334.999 209 339.999 207.5 341.999C206 343.999 204 348.499 201 350.499Z" fill="#E2BBA6"/>
<path d="M153.215 526.712C154.822 517.068 163.166 510 172.943 510H210.391C222.75 510 232.15 521.097 230.119 533.288L229 540H151L153.215 526.712Z" fill="#1C3B78"/>
<path d="M133.215 526.712C134.822 517.068 143.166 510 152.943 510H190.391C202.75 510 212.15 521.097 210.119 533.288L209 540H131L133.215 526.712Z" fill="#152D5D"/>
<path d="M170 510L182.5 441.5H207.5L195.5 510" stroke="black" stroke-width="3"/>
<path d="M179 437H218L216 444H177L179 437Z" fill="#666A6A"/>
<path d="M175 437H214L212 444H173L175 437Z" fill="#C4C4C4"/>
<path d="M154.5 520.5L149 540H153L158 520.5H154.5Z" fill="white"/>
<path d="M170.5 521L165 540.5H169L174 521H170.5Z" fill="white"/>
<path d="M187.5 521L182 540.5H186L191 521H187.5Z" fill="white"/>
<path d="M148 396.5C142.5 392 142.833 390.667 141.5 387L122 398.5C125 405 126.722 408.225 130.5 411.5C138 418 163.5 434.5 177.5 443C182.441 446 188.618 449.127 195 447C204 444 207.833 439 211.5 436H217.5L215.5 443H208L207 449C207 449 207.5 449.9 209.5 449.5C212 449 218 442.081 218 440.5C218 439 218.5 429 215.5 428.5C212.5 428 212.5 427 210.5 426C208.5 425 207.5 427 204.5 426C201.5 425 200 428.5 198 427C196.4 425.8 194.333 426.5 193.5 427C190.167 428.333 184.062 432.249 182.5 431C177.5 427 153.5 401 148 396.5Z" fill="#E2BBA6"/>
<path d="M136.5 408C132.5 404.4 128.5 398.167 127 395.5L122 398.5C125 406.5 130.5 411 134 414C137.5 417 162.5 433.5 166.5 436C170.5 438.5 180.5 447.5 192 447.5C201.2 447.5 208.5 439.833 211 436H215.5C215 434.5 212.7 432.4 207.5 436C201 440.5 188.5 443 183.5 441C178.5 439 141.5 412.5 136.5 408Z" fill="#CEA999"/>
<path d="M292.34 75.582C310.953 58.7418 333.333 54.5314 342.197 54.5312V95.9221H213.467C237.459 64.9813 269.074 96.6323 292.34 75.582Z" fill="#E1E1E1"/>
</svg>

<svg xmlns="http://www.w3.org/2000/svg" fill="none" viewBox="0 0 471 541"><path fill="#fff" d="M0 539.498c33.081-150.109 237.833-172.832 340.5-165.999v166L0 539.498z"/><path stroke="#C4C4C4" d="M194 97.262V538"/><circle r="22" fill="#E1E1E1" transform="matrix(-1 0 0 1 138.828 361)"/><path fill="#152D5D" d="M191.328 196.998c-48.5-13.535-102.5-12.499-129.5-12.499v123.5c57 0 194.6.499 205 .499 13 0 47.5-13 16.5-52.5s-70.5-52.999-92-59z"/><path fill="#E1E1E1" d="M110.328 249.998h-53.5v-3c14-.333 44.9-.7 56.5.5 11.6 1.2 19.167 5.5 21.5 7.5-4.5-1.667-15.7-5-24.5-5zM140.835 349.143L134.27 297l-8.799 4.752 8.202 61.487 7.162-14.096zM104.009 292.619c21.489-5.897 32.166-20.203 34.819-26.619-5.173 27.192-35.979 39.997-50.736 43H42.828v-4.914c11.44-1.365 39.693-5.57 61.181-11.467z"/><rect width="33" height="53" fill="#E1E1E1" rx="16.5" transform="matrix(-1 0 0 1 190.828 211)"/><circle r="9.5" fill="#E1E1E1" transform="matrix(-1 0 0 1 134.328 220.5)"/><circle r="9.5" fill="#E1E1E1" transform="matrix(-1 0 0 1 103.328 220.5)"/><circle r="9.5" fill="#E1E1E1" transform="matrix(-1 0 0 1 73.328 220.5)"/><path fill="#E1E1E1" d="M220.828 218.997h15c14.4 7.2 30 21.667 36 28h-58c-5.5 0-4.5-4.5-4-6s6.5-16.5 8-19.5c1.2-2.4 2.5-2.667 3-2.5z"/><path fill="#fff" d="M52 96h283v13H52z"/><path fill="#C4C4C4" fill-opacity=".3" d="M256 109.086h-62v183.911l62-183.911z"/><path fill="#E1E1E1" d="M341 539.999V54.569c34.866-1.35 65.747 2.702 95.134 27.47 27.395 23.087 33.87 54.486 33.87 70.247L471 539.999H341zM75.495-.857C36.675-3.534 9.323 25.245.5 39.97h207c-7.239-11.043-28.166-30.653-53.956-20.748C121.307 31.603 124.021 2.49 75.495-.857z"/><path fill="#fff" d="M329 96h12v444h-12zM49 96h12.828v443.178H49z"/><path fill="#DCDCDC" fill-opacity=".5" fill-rule="evenodd" d="M115.997 109.016L62 263.754v63.921l79.537-218.659h53.465L194 539.999H61l1.002-430.983h53.995z" clip-rule="evenodd"/><path fill="#D8D8D8" fill-opacity=".5" fill-rule="evenodd" d="M194 335.261l75-226.171h60v430.911H194v-42.452l129-388.003h-5.5L194 481.116V335.261z" clip-rule="evenodd"/><path fill="#E2BBA6" d="M125.001 395.001s-4.689-1.718-13.385-12.532c0 0 2.169 9.092-9.429 19.505-8.033 7.189-1.767 45.488 1.617 52.246 0 0-32.052 31.58-84.226 6.288 0 0 13.104-47.69 14.058-74.654 1.175-30.619 4.72-50.304 15.443-79.211 10.724-28.906 13.265-44.856 11.809-60.076-1.456-15.219-.723-39.049 26.107-44.806 26.83-5.758 30.003 25.792 30.003 25.792s2.37 40.341-8.184 49.583c-9.247 8.15-25.103-2.193-25.103-2.193s-3.675 18.714.583 25.322c0 0 5.874 6.719 20.383 12.496 15.153 6.008 17.583 50.064 25.616 58.134"/><path fill="#CEA999" d="M100.229 202.23c1.074 6.559 2.791 17.092 4.377 27.475-1.004-9.782-2.861-20.616-4.147-27.394l-.23-.081zM116.977 227.594l-12.371 2.112.623 9.412c.12 5.167 4.87 3.645 3.595 5.607-5.342 8.241-12.632-5.346-17.05-4.926-4.418.421-6.477 5.447-3.304 14.018 3.173 8.571-8.234 10.954-9.218 15.76-.984 4.806-8.645 31.87 0 41.132l13.245-4.005a40.02 40.02 0 01-8.194-6.398c-4.257-6.609-.582-25.322-.582-25.322s15.845 10.343 25.103 2.193a12.057 12.057 0 002.008-2.323c5.272-7.38 6.025-26.113 6.175-30.129.151-4.015-.03-17.131-.03-17.131z"/><path fill="#E9D694" d="M103.5 252.856c10-9.6 14.5-20.667 15.5-25 6.8-18.8-7.5-24.5-15.5-25-4.8-2.8-10-4.5-12-5-29-5.5-43 8.643-49.5 19.643-3.815 6.457-7 18-6 23s0 11-4 19.5 2.5 10.5 2.5 17c0 5.2-4.167 8.834-5.5 10.5 2.667 1.667 20.9 7.057 24.5 5.857 4.5-1.5 3-2.5 12 0s16.5.5 21-2.5c3.6-2.4 11.333-.667 13.5 0-1-2.834-4.9-11.4-2.5-19 2.4-7.6-2-12.834-4.5-14.5-2.667-3-6.7-9.9-1.5-13.5 5.2-3.6 10.167 4.5 12 9z"/><path fill="#C9B058" d="M103.5 253c17.6-18.4 18-34.333 16-40-2 26.5-24 22-30.5 29.5S84 261 89 270c4 7.2 2.333 12.333 1 14-5.5-.5-7.5 3.5-16 5s-7.5-1.5-18 1c-8.4 2-21.167-.833-26.5-2.5 2 2 16 6 21 6s4-1 10-1 7 2.5 13.5 2 6.5-1 13.5-4.5c5.6-2.8 11-.167 13 1.5C99 288 96.4 278.8 98 270c2-11-3.5-11.5-6-14-1.768-1.768-5.5-9 1-12.5 4-2.154 9.167 5.167 10.5 9.5z"/><path fill="#FAE7A4" d="M36 261c-3.6 2.4-4.5 6-4.5 7.5-3-5.5 0-7.5 3-15s1.5-6.5 1.5-14 1-12.5 5-20.5 12.5-19 32-22c15.6-2.4 26.834 3 30.5 6 3.2-.4 6.334.834 7.5 1.5-1.666.834-6.3 2-11.5 0s-8.166-.833-9 0c-18 10-25 7-35.5 11s-16.5 14.5-14 26-.5 16.5-5 19.5z"/><path fill="#292289" d="M50.706 302.164s-4.8 4.005-9.128 16.02c-4.327 12.016 6.929-6.918 6.929-6.918l1.325-6.699.874-2.403z"/><path fill="#F4EFEF" d="M102.498 450.633s15.366 54.961 14.502 89.365l-102.054-.305H0s1-27.194 5.5-45.194c4.5-18 15.975-41.213 15.975-41.213s44.533 22.819 81.023-2.653z"/><path fill="#F4C7C3" d="M102.186 311.5C117.379 317.548 128 348.033 146 385l-26 15s-3.5-6.5-8.385-17.533c0 0 2.169 9.092-9.429 19.505-8.003 7.189-1.335 44.396 1.617 52.246 0 0-74.998 32.521-82.338-.931 0 0 7.591-28.987 8.595-55.951C31.165 366.727 34.484 335.5 41 318.5c4.187-10.924 11-19 11-19 4.73 4.926 8.702 8.84 32.5 1 4.83 3.443 12.148 8.865 17.686 11z"/><path fill="#D3A8A4" d="M107.318 369.023s9.158 17.713 18.506 20.486c3.173 1.606 7.773 1.497 9.677 1.493l-16 9.5s-2.5-6.5-7.885-18.032c0 0 2.169 9.092-9.429 19.505-8.003 7.189-1.335 44.396 1.617 52.246 0 0-6.507 2.814-15.855 5.938-2.39-14.418-6.316-43.776-.864-54.89 7.35-14.979 19.43-17.872 20.233-36.246z"/><path fill="#000" d="M53.678 464.07c.18 1.212.351 2.393.522 3.565-.17-1.172-.342-2.353-.522-3.565zM53.536 463.15c0-.321-.09-.641-.14-1.002.04.361.1.681.14 1.002z" opacity=".3"/><path fill="#fff" d="M54.136 521L50 540h10c-2-9-5.227-16.833-5.864-19z"/><path fill="#C4C4C4" d="M54 521l-4 19h-8l4-14.5-10.5-6c4.8.8 14.333 1.333 18.5 1.5z"/><path fill="#D3A8A4" d="M142.5 356.5L126 343l10.5 22 6-8.5z"/><path fill="#E2BBA6" d="M154 369.5c-2.4-1.2-9.833-7.167-13.5-10l-4 5.5 9.5 20-3.5 2c6 5.2 10.167 5.167 11.5 4.5 14.4-5.6 36.333-20 45.5-26.5l-4.5-11c-12.667 5.667-38.6 16.7-41 15.5z"/><path fill="#8E5841" d="M231.534 313l-20.808 21.333L202 343l18.795 18L251 329l-19.466-16z"/><circle cx="226" cy="335.5" r="5.5" fill="#FFD300"/><path stroke="#FFD300" d="M233.5 320l9.5 8M232.5 324l6 5M211 346.5l6.5 6"/><path fill="#E2BBA6" d="M201 350.499c-2.4 1.6-4 2.5-6 3.5l3 12c1.333-1.167 6-3.7 10-4.5 4-.8 7.5-3.5 9-4.5-2.333-2-7-6.3-7-7.5 0-1.5 1.5-6 3-7.5s5-4 4-5.5-8 3.5-9.5 5.5-3.5 6.5-6.5 8.5z"/><path fill="#1C3B78" d="M153.215 526.712c1.607-9.644 9.951-16.712 19.728-16.712h37.448c12.359 0 21.759 11.097 19.728 23.288L229 540h-78l2.215-13.288z"/><path fill="#152D5D" d="M133.215 526.712c1.607-9.644 9.951-16.712 19.728-16.712h37.448c12.359 0 21.759 11.097 19.728 23.288L209 540h-78l2.215-13.288z"/><path stroke="#000" stroke-width="3" d="M170 510l12.5-68.5h25l-12 68.5"/><path fill="#666A6A" d="M179 437h39l-2 7h-39l2-7z"/><path fill="#C4C4C4" d="M175 437h39l-2 7h-39l2-7z"/><path fill="#fff" d="M154.5 520.5L149 540h4l5-19.5h-3.5zM170.5 521l-5.5 19.5h4l5-19.5h-3.5zM187.5 521l-5.5 19.5h4l5-19.5h-3.5z"/><path fill="#E2BBA6" d="M148 396.5c-5.5-4.5-5.167-5.833-6.5-9.5L122 398.5c3 6.5 4.722 9.725 8.5 13 7.5 6.5 33 23 47 31.5 4.941 3 11.118 6.127 17.5 4 9-3 12.833-8 16.5-11h6l-2 7H208l-1 6s.5.9 2.5.5c2.5-.5 8.5-7.419 8.5-9 0-1.5.5-11.5-2.5-12s-3-1.5-5-2.5-3 1-6 0-4.5 2.5-6.5 1c-1.6-1.2-3.667-.5-4.5 0-3.333 1.333-9.438 5.249-11 4-5-4-29-30-34.5-34.5z"/><path fill="#CEA999" d="M136.5 408c-4-3.6-8-9.833-9.5-12.5l-5 3c3 8 8.5 12.5 12 15.5s28.5 19.5 32.5 22 14 11.5 25.5 11.5c9.2 0 16.5-7.667 19-11.5h4.5c-.5-1.5-2.8-3.6-8 0-6.5 4.5-19 7-24 5s-42-28.5-47-33z"/><path fill="#E1E1E1" d="M292.34 75.582c18.613-16.84 40.993-21.05 49.857-21.05v41.39h-128.73c23.992-30.94 55.607.71 78.873-20.34z"/></svg>
